svg/blobs-icons/no-decorations/shopping-cart.svg

<svg xmlns="http://www.w3.org/2000/svg" xmlns:xlink="http://www.w3.org/1999/xlink" preserveAspectRatio="xMidYMid" width="216" height="175" viewBox="0 0 216 175"><defs><style>.cls-3{fill:#ff3a2f}.cls-5{fill:#0cb04a}.cls-6{fill:#000;opacity:.25}.cls-7{fill:#142a3b}</style></defs><g id="group-110svg"><path d="M142.27 160.769C142.27 168.571 148.558 174.897 156.315 174.897S170.361 168.571 170.361 160.769C170.361 152.966 164.072 146.64 156.315 146.64S142.27 152.966 142.27 160.769z" id="path-1" class="cls-3" fill-rule="evenodd"/><path d="M70.035 160.769C70.035 168.571 76.324 174.897 84.08 174.897 91.837 174.897 98.126 168.571 98.126 160.769c0-7.803-6.289-14.129-14.046-14.129C76.324 146.64 70.035 152.966 70.035 160.769z" id="path-2" class="cls-3" fill-rule="evenodd"/><path d="M65.999 117.557s121.454.0 121.454.0 28.092-84.772 28.092-84.772-168.548.0-168.548.0.0.0.0.0" id="path-3" class="cls-5" fill-rule="evenodd"/><path d="M190.506 32.785s-9.279 28-9.279 28C172.7 86.521 148.624 103.894 121.495 103.894H62.937s3.062 13.663 3.062 13.663 121.454.0 121.454.0 28.092-84.772 28.092-84.772-25.039.0-25.039.0z" id="path-4" class="cls-6" fill-rule="evenodd"/><path d="M173.407 139.987s-105.787.0-105.787.0S33.583 7.189 33.583 7.189s-29.986.0-29.986.0C1.614 7.189.005 5.58.005 3.597.005 1.613 1.614.004 3.597.004H39.158S73.194 132.803 73.194 132.803s100.213.0 100.213.0C175.391 132.803 177 134.412 177 136.396 177 138.379 175.391 139.987 173.407 139.987z" id="path-5" class="cls-7" fill-rule="evenodd"/></g></svg>

<svg xmlns="http://www.w3.org/2000/svg" xmlns:xlink="http://www.w3.org/1999/xlink" preserveAspectRatio="xMidYMid" width="216" height="175" viewBox="0 0 216 175">
  <defs>
    <style>

      .cls-3 {
        fill: #ff3a2f;
      }

      .cls-5 {
        fill: #0cb04a;
      }

      .cls-6 {
        fill: #000000;
        opacity: 0.25;
      }

      .cls-7 {
        fill: #142a3b;
      }
    </style>
  </defs>
  <g id="group-110svg">
    <path d="M142.270,160.769 C142.270,168.571 148.558,174.897 156.315,174.897 C164.072,174.897 170.361,168.571 170.361,160.769 C170.361,152.966 164.072,146.640 156.315,146.640 C148.558,146.640 142.270,152.966 142.270,160.769 Z" id="path-1" class="cls-3" fill-rule="evenodd"/>
    <path d="M70.035,160.769 C70.035,168.571 76.324,174.897 84.080,174.897 C91.837,174.897 98.126,168.571 98.126,160.769 C98.126,152.966 91.837,146.640 84.080,146.640 C76.324,146.640 70.035,152.966 70.035,160.769 Z" id="path-2" class="cls-3" fill-rule="evenodd"/>
    <path d="M65.999,117.557 C65.999,117.557 187.453,117.557 187.453,117.557 C187.453,117.557 215.545,32.785 215.545,32.785 C215.545,32.785 46.997,32.785 46.997,32.785 C46.997,32.785 46.997,32.785 46.997,32.785 " id="path-3" class="cls-5" fill-rule="evenodd"/>
    <path d="M190.506,32.785 C190.506,32.785 181.227,60.785 181.227,60.785 C172.700,86.521 148.624,103.894 121.495,103.894 C121.495,103.894 62.937,103.894 62.937,103.894 C62.937,103.894 65.999,117.557 65.999,117.557 C65.999,117.557 187.453,117.557 187.453,117.557 C187.453,117.557 215.545,32.785 215.545,32.785 C215.545,32.785 190.506,32.785 190.506,32.785 Z" id="path-4" class="cls-6" fill-rule="evenodd"/>
    <path d="M173.407,139.987 C173.407,139.987 67.620,139.987 67.620,139.987 C67.620,139.987 33.583,7.189 33.583,7.189 C33.583,7.189 3.597,7.189 3.597,7.189 C1.614,7.189 0.005,5.580 0.005,3.597 C0.005,1.613 1.614,0.004 3.597,0.004 C3.597,0.004 39.158,0.004 39.158,0.004 C39.158,0.004 73.194,132.803 73.194,132.803 C73.194,132.803 173.407,132.803 173.407,132.803 C175.391,132.803 177.000,134.412 177.000,136.396 C177.000,138.379 175.391,139.987 173.407,139.987 Z" id="path-5" class="cls-7" fill-rule="evenodd"/>
  </g>
</svg>
